X: 10
T: Blackhaired Lass, The
Z: Sean Perry
S: https://thesession.org/tunes/237#setting50123
R: reel
M: 4/4
L: 1/8
K: Gdor
A|: BAGA BcdB|c2fc AcFA|BAGA BcdB|cAdB G3A :|
Bcde f2 df |e2 ce fedA| Bcde fagf|ecdB G3 A |
Bcde f2 df |ecc2 cdeg-|gefd ecdB | cAdB G4||

